packages/ui/public/icons/passes.svg

<svg width="17" height="18" viewBox="0 0 17 18" fill="none" xmlns="http://www.w3.org/2000/svg">
<path d="M4.55176 9.25391H8.48486C8.64111 9.25391 8.77295 9.19531 8.88037 9.07812C8.99268 8.96094 9.04883 8.8291 9.04883 8.68262C9.04883 8.52148 8.99512 8.38477 8.8877 8.27246C8.78027 8.16016 8.646 8.104 8.48486 8.104H4.55176C4.39062 8.104 4.25635 8.16016 4.14893 8.27246C4.0415 8.38477 3.98779 8.52148 3.98779 8.68262C3.98779 8.8291 4.0415 8.96094 4.14893 9.07812C4.25635 9.19531 4.39062 9.25391 4.55176 9.25391ZM4.55176 11.1216H7.32031C7.47656 11.1216 7.6084 11.0654 7.71582 10.9531C7.82324 10.8408 7.87695 10.7065 7.87695 10.5503C7.87695 10.394 7.82324 10.2598 7.71582 10.1475C7.6084 10.0352 7.47656 9.979 7.32031 9.979H4.55176C4.39062 9.979 4.25635 10.0352 4.14893 10.1475C4.0415 10.2598 3.98779 10.394 3.98779 10.5503C3.98779 10.7065 4.0415 10.8408 4.14893 10.9531C4.25635 11.0654 4.39062 11.1216 4.55176 11.1216ZM11.854 11.2314C12.1714 11.2314 12.4595 11.1533 12.7183 10.9971C12.9819 10.8408 13.1919 10.6309 13.3481 10.3672C13.5044 10.1035 13.5825 9.81055 13.5825 9.48828C13.5825 9.1709 13.5044 8.88037 13.3481 8.6167C13.1919 8.35303 12.9819 8.14307 12.7183 7.98682C12.4595 7.83057 12.1714 7.75244 11.854 7.75244C11.5317 7.75244 11.2388 7.83057 10.9751 7.98682C10.7114 8.14307 10.499 8.35303 10.3379 8.6167C10.1816 8.88037 10.1035 9.1709 10.1035 9.48828C10.1035 9.81055 10.1816 10.1035 10.3379 10.3672C10.499 10.6309 10.7114 10.8408 10.9751 10.9971C11.2388 11.1533 11.5317 11.2314 11.854 11.2314ZM3.45312 17.3325H14C14.835 17.3325 15.4746 17.1104 15.9189 16.666C16.3633 16.2266 16.5854 15.5918 16.5854 14.7617V7.21045C16.5854 6.38037 16.3633 5.74561 15.9189 5.30615C15.4746 4.86182 14.835 4.63965 14 4.63965H3.45312C2.61816 4.63965 1.97852 4.86182 1.53418 5.30615C1.08984 5.74561 0.867676 6.38037 0.867676 7.21045V14.7617C0.867676 15.5918 1.08984 16.2266 1.53418 16.666C1.97852 17.1104 2.61816 17.3325 3.45312 17.3325ZM3.6582 15.4429C3.36523 15.4429 3.14062 15.3672 2.98438 15.2158C2.83301 15.0693 2.75732 14.8398 2.75732 14.5273V7.44482C2.75732 7.13232 2.83301 6.90283 2.98438 6.75635C3.14062 6.60498 3.36523 6.5293 3.6582 6.5293H13.7876C14.0806 6.5293 14.3052 6.60498 14.4614 6.75635C14.6177 6.90283 14.6958 7.13232 14.6958 7.44482V14.5273C14.6958 14.8398 14.6177 15.0693 14.4614 15.2158C14.3052 15.3672 14.0806 15.4429 13.7876 15.4429H3.6582ZM2.59619 3.42383H14.8643C14.8154 3.05273 14.6836 2.76221 14.4688 2.55225C14.2539 2.34229 13.9341 2.2373 13.5093 2.2373H3.95117C3.52148 2.2373 3.19922 2.34229 2.98438 2.55225C2.77441 2.76221 2.64502 3.05273 2.59619 3.42383ZM4.06104 1.16797H13.3994C13.3701 0.816406 13.248 0.547852 13.0332 0.362305C12.8184 0.171875 12.5229 0.0766602 12.147 0.0766602H5.30615C4.93018 0.0766602 4.63477 0.171875 4.41992 0.362305C4.20508 0.547852 4.08545 0.816406 4.06104 1.16797Z" fill="white" fill-opacity="0.8"/>
</svg>

<svg width="17" height="18" fill="none" xmlns="http://www.w3.org/2000/svg"><path d="M4.552 9.254h3.933a.516.516 0 0 0 .395-.176.571.571 0 0 0 .007-.806.534.534 0 0 0-.402-.168H4.552a.534.534 0 0 0-.403.168.571.571 0 0 0-.161.41.57.57 0 0 0 .16.396.524.524 0 0 0 .404.176Zm0 1.868H7.32a.526.526 0 0 0 .396-.169.562.562 0 0 0 .16-.403.562.562 0 0 0-.16-.402.526.526 0 0 0-.396-.169H4.552a.534.534 0 0 0-.403.169.562.562 0 0 0-.161.402c0 .156.054.29.16.403a.534.534 0 0 0 .404.169Zm7.302.11c.317 0 .606-.079.864-.235a1.77 1.77 0 0 0 .63-.63c.156-.264.234-.556.234-.879 0-.317-.078-.608-.234-.871a1.77 1.77 0 0 0-.63-.63 1.64 1.64 0 0 0-.864-.235c-.322 0-.615.079-.879.235a1.83 1.83 0 0 0-.637.63 1.678 1.678 0 0 0-.234.871c0 .323.078.616.234.88.161.263.373.473.637.63.264.155.557.233.879.233Zm-8.4 6.1H14c.835 0 1.475-.222 1.919-.666.444-.44.666-1.074.666-1.904V7.21c0-.83-.222-1.464-.666-1.904-.444-.444-1.084-.666-1.919-.666H3.453c-.835 0-1.474.222-1.919.666C1.09 5.746.868 6.38.868 7.21v7.552c0 .83.222 1.465.666 1.904.445.444 1.084.666 1.92.666Zm.204-1.89c-.293 0-.517-.075-.674-.226-.151-.147-.227-.376-.227-.689V7.445c0-.313.076-.542.227-.689.157-.151.381-.227.674-.227h10.13c.293 0 .517.076.673.227.157.147.235.376.235.689v7.082c0 .313-.078.542-.235.689-.156.151-.38.227-.673.227H3.658ZM2.596 3.425h12.268c-.049-.371-.18-.662-.395-.872-.215-.21-.535-.315-.96-.315H3.951c-.43 0-.752.105-.967.315-.21.21-.339.5-.388.872Zm1.465-2.256h9.338c-.029-.352-.151-.62-.366-.806-.215-.19-.51-.285-.886-.285h-6.84c-.377 0-.672.095-.887.285-.215.186-.335.454-.359.806Z" fill="#fff" fill-opacity=".8"/></svg>
